rospo-dark/16x16/actions/format-text-direction-ltr.svg

<?xml version="1.0" encoding="UTF-8" standalone="no"?>
<svg xmlns="http://www.w3.org/2000/svg" width="22" height="22" viewBox="0 0 22 22">
 <defs>
  <style type="text/css" id="current-color-scheme">
   .ColorScheme-Text { color:#d3dae3; } .ColorScheme-Highlight { color:#5294e2; }
  </style>
 </defs>
 <path style="fill:currentColor;opacity:1" class="ColorScheme-Text" transform="translate(3 3)" d="M 2 0 L 2 2 L 8 2 C 8.42816 2 9 2.61414 9 3 L 9 4 L 4 4 C 3.08073 4 2.2644 4.38396 1.75 4.96875 C 1.2356 5.55354 0.99361 6.2794 1 7 C 1.006 7.72062 1.26893 8.45275 1.78125 9.03125 C 2.29357 9.60979 3.0917 10 4 10 L 11 10 L 11 3 C 11.00009 1.3657 9.6802 0 8 0 L 2 0 z M 4 6 L 9 6 L 9 8 L 4 8 C 3.60213 8 3.43309 7.89021 3.28125 7.71875 C 3.12941 7.54729 3.00248 7.27938 3 7 C 2.998 6.72062 3.10467 6.44646 3.25 6.28125 C 3.39533 6.11604 3.57764 6 4 6 z M 12 8.9980469 C 12 8.9980469 12.00002 10.109147 12 10.998047 L 0.9375 10.998047 L 0.9375 12.998047 L 12 12.998047 C 12 13.886937 11.99995 14.998047 12 14.998047 L 16 11.998047 L 12 8.9980469 z"/>
</svg>

<svg height="16" viewBox="0 0 16 16" width="16" xmlns="http://www.w3.org/2000/svg"><path d="m2 0v2h6c .42816 0 1 .61414 1 1v1h-5c-.91927 0-1.7356.38396-2.25.96875s-.75639 1.31065-.75 2.03125c.006.72062.26893 1.45275.78125 2.03125.51232.57854 1.31045.96875 2.21875.96875h7v-7c .00009-1.6343-1.3198-3-3-3zm2 6h5v2h-5c-.39787 0-.56691-.10979-.71875-.28125s-.27877-.43937-.28125-.71875c-.002-.27938.10467-.55354.25-.71875s.32764-.28125.75-.28125zm8 2.9980469s.00002 1.1111001 0 2.0000001h-11.0625v2h11.0625c0 .88889-.00005 2 0 2l4-3z" fill="#d3dae3"/></svg>
